DSView/icons/light/protocol.svg

<?xml version="1.0" encoding="UTF-8" standalone="no"?>
<!-- 由 Microsoft Visio, SVG Export 生成 protocol.svg 页-1 -->

<svg
   xmlns:v="http://schemas.microsoft.com/visio/2003/SVGExtensions/"
   xmlns:dc="http://purl.org/dc/elements/1.1/"
   xmlns:cc="http://creativecommons.org/ns#"
   xmlns:rdf="http://www.w3.org/1999/02/22-rdf-syntax-ns#"
   xmlns:svg="http://www.w3.org/2000/svg"
   xmlns="http://www.w3.org/2000/svg"
   xmlns:sodipodi="http://sodipodi.sourceforge.net/DTD/sodipodi-0.dtd"
   xmlns:inkscape="http://www.inkscape.org/namespaces/inkscape"
   width="512"
   height="512"
   viewBox="0 0 384.00023 383.99946"
   xml:space="preserve"
   class="st2"
   version="1.1"
   id="svg16"
   sodipodi:docname="protocol.svg"
   style="font-size:12px;overflow:visible;color-interpolation-filters:sRGB;fill:none;fill-rule:evenodd;stroke-linecap:square;stroke-miterlimit:3"
   inkscape:version="0.92.4 (5da689c313, 2019-01-14)"><metadata
   id="metadata22"><rdf:RDF><cc:Work
       rdf:about=""><dc:format>image/svg+xml</dc:format><dc:type
         rdf:resource="http://purl.org/dc/dcmitype/StillImage" /><dc:title></dc:title></cc:Work></rdf:RDF></metadata><defs
   id="defs20" /><sodipodi:namedview
   pagecolor="#ffffff"
   bordercolor="#666666"
   borderopacity="1"
   objecttolerance="10"
   gridtolerance="10"
   guidetolerance="10"
   inkscape:pageopacity="0"
   inkscape:pageshadow="2"
   inkscape:window-width="793"
   inkscape:window-height="480"
   id="namedview18"
   showgrid="false"
   units="px"
   inkscape:zoom="0.6278947"
   inkscape:cx="255.99985"
   inkscape:cy="187.9296"
   inkscape:window-x="0"
   inkscape:window-y="0"
   inkscape:window-maximized="0"
   inkscape:current-layer="svg16" />
	<v:documentProperties
   v:langID="2052"
   v:viewMarkup="false" />

	<style
   type="text/css"
   id="style2">
	<![CDATA[
		.st1 {fill:#2a2a2a;stroke:none;stroke-linecap:butt;stroke-width:7.9569}
		.st2 {fill:none;fill-rule:evenodd;font-size:12px;overflow:visible;stroke-linecap:square;stroke-miterlimit:3}
	]]>
	</style>

	<g
   v:mID="0"
   v:index="1"
   v:groupContext="foregroundPage"
   id="g14"
   transform="translate(0.215515,51.056632)">
		<title
   id="title4">页-1</title>
		<v:pageProperties
   v:drawingScale="0.0393701"
   v:pageScale="0.0393701"
   v:drawingUnits="24"
   v:shadowOffsetX="9"
   v:shadowOffsetY="-9" />
		<g
   id="group273-1"
   transform="translate(0,-7.94258)"
   v:mID="273"
   v:groupContext="group">
			<title
   id="title6">工作表.273</title>
			<g
   id="shape280-2"
   v:mID="280"
   v:groupContext="shape"
   transform="translate(55.9046,-0.0143224)">
				<title
   id="title8">工作表.280</title>
				<path
   d="m 166.63,57.62 34.15,42.56 c -4.75,0.36 -9.85,-0.27 -14.95,-2.8 L 166.4,73.17 c -1.52,-5.71 -1.14,-10.94 0.23,-15.55 z m 52.27,36.4 -42.2,-52.58 c -1.99,1.99 -4.27,4.69 -6.31,7.98 l 39.28,48.93 c 3.75,-1.27 6.91,-2.91 9.23,-4.33 z m -198.38,71.52 42.53,53 c 1.58,-1.52 4.09,-4.16 6.52,-7.72 L 29.1,160.4 c -3.35,1.59 -6.29,3.46 -8.58,5.14 z m 55.64,24.76 -26.2,-32.65 c -4.44,-1.09 -8.74,-0.9 -12.75,-0.04 l 36.52,45.51 c 1.56,-3.83 2.56,-8.15 2.43,-12.82 z M 86.4,157.86 c -25.19,-31.37 2.07,-55.85 7.78,-60.44 10.44,-8.36 37.19,-24.7 60.41,4.23 4.81,5.98 7.57,11.81 8.88,17.35 4.05,-0.81 8.21,-1.24 12.49,-1.27 -0.25,-1.27 -0.52,-2.54 -0.89,-3.83 24.07,10.59 52.61,-2.63 66.88,-13.55 l -7.6,-9.94 c -1.75,1.33 -43.03,32.17 -67.6,1.55 -24.65,-30.7 13.86,-65.19 15.51,-66.64 l -8.25,-9.41 C 160.56,27.69 141.98,52.93 147.03,78.74 126.02,66.86 103.06,74.25 86.35,87.67 74.13,97.47 59.62,117.39 64.41,140.93 40.88,132.24 13.79,144.96 0,155.51 l 7.6,9.95 c 1.74,-1.33 43.03,-32.17 67.6,-1.55 24.64,30.71 -13.86,65.19 -15.52,66.64 l 8.25,9.4 c 12.74,-11.14 30.12,-34.35 27.66,-58.69 5.19,2.53 10.47,3.88 15.66,4.41 -0.04,-0.89 -0.14,-1.78 -0.14,-2.69 0,-3.31 0.33,-6.54 0.81,-9.73 -8.44,-1.02 -17.38,-5.23 -25.52,-15.39 z M 175.44,241 c -31.94,0 -57.92,-25.99 -57.92,-57.92 0,-31.94 25.98,-57.92 57.92,-57.92 31.95,0 57.93,25.98 57.93,57.92 0,31.93 -25.98,57.92 -57.93,57.92 z m 43.39,-57.92 c 0,-23.92 -19.47,-43.38 -43.39,-43.38 -23.92,0 -43.38,19.46 -43.38,43.38 0,23.91 19.46,43.37 43.38,43.37 23.92,0 43.38,-19.46 43.39,-43.37 z m 8.43,41.52 -12.8,12.8 44.49,44.49 12.81,-12.8 z m -60.45,-15.8 h 14.66 v -13.93 h -14.66 z m 23.02,-46.55 c -1.46,-1.44 -3.36,-2.62 -5.71,-3.52 -2.35,-0.92 -5.23,-1.37 -8.66,-1.37 -3.47,0 -6.42,0.53 -8.83,1.57 -2.42,1.06 -4.4,2.43 -5.95,4.11 -1.56,1.69 -2.7,3.61 -3.45,5.74 -0.75,2.14 -1.19,4.31 -1.33,6.52 h 14.71 c -0.14,-1.55 0.13,-2.93 0.84,-4.15 0.7,-1.23 1.91,-1.83 3.59,-1.83 2.72,0 4.1,1.2 4.1,3.59 0,0.8 -0.24,1.49 -0.71,2.04 -0.47,0.58 -1.05,1.06 -1.72,1.44 -0.69,0.4 -1.4,0.78 -2.15,1.09 -0.75,0.33 -1.41,0.64 -1.98,0.91 -1.36,0.76 -2.39,1.7 -3.09,2.82 -0.71,1.13 -1.21,2.27 -1.5,3.44 -0.27,1.17 -0.41,2.32 -0.41,3.44 0,1.08 0.03,1.98 0.07,2.69 h 13.03 c 0,-0.81 0.06,-1.51 0.17,-2.11 0.12,-0.6 0.32,-1.15 0.59,-1.61 0.28,-0.48 0.68,-0.93 1.2,-1.34 0.5,-0.42 1.16,-0.85 1.97,-1.27 1.17,-0.61 2.32,-1.22 3.45,-1.8 1.12,-0.58 2.14,-1.32 3.06,-2.22 0.91,-0.88 1.66,-2 2.23,-3.34 0.57,-1.34 0.84,-3.08 0.84,-5.26 -0.11,-1.54 -0.49,-3.17 -1.17,-4.88 -0.66,-1.71 -1.73,-3.27 -3.19,-4.7 z m -104.82,-23.92 19.42,24.21 c 3.1,1.53 6.19,2.31 9.2,2.64 0.48,-1.69 1.04,-3.33 1.65,-4.96 L 85.24,122.78 c -1.38,4.6 -1.76,9.84 -0.23,15.55 z m 3.98,-23.76 29.98,37.35 c 1.66,-3.07 3.61,-5.95 5.73,-8.69 L 95.3,106.59 c -1.98,1.99 -4.27,4.69 -6.31,7.98 z m 47.82,16.58 -27.56,-34.35 c -3.36,1.59 -6.3,3.46 -8.59,5.15 l 28.73,35.8 c 2.3,-2.39 4.79,-4.58 7.42,-6.6 z m 15.89,-8.94 -22.6,-28.15 c -4.44,-1.09 -8.74,-0.9 -12.74,-0.04 l 26.17,32.62 c 2.93,-1.7 5.98,-3.19 9.17,-4.43 z"
   class="st1"
   id="path10"
   inkscape:connector-curvature="0"
   style="fill:#2a2a2a;stroke:none;stroke-width:7.95690012;stroke-linecap:butt" />
			</g>
		</g>
	</g>
</svg>

<?xml version="1.0" encoding="UTF-8" standalone="no"?>
<!DOCTYPE svg PUBLIC "-//W3C//DTD SVG 1.1//EN" "http://www.w3.org/Graphics/SVG/1.1/DTD/svg11.dtd">
<!-- 由 Microsoft Visio, SVG Export 生成 protocol.svg 页-1 -->
<svg xmlns="http://www.w3.org/2000/svg" xmlns:xlink="http://www.w3.org/1999/xlink" xmlns:ev="http://www.w3.org/2001/xml-events"
		xmlns:v="http://schemas.microsoft.com/visio/2003/SVGExtensions/" width="5.33333in" height="3.9152in"
		viewBox="0 0 384 281.894" xml:space="preserve" color-interpolation-filters="sRGB" class="st2">
	<v:documentProperties v:langID="2052" v:viewMarkup="false"/>

	<style type="text/css">
	<![CDATA[
		.st1 {fill:#2a2a2a;stroke:none;stroke-linecap:butt;stroke-width:7.9569}
		.st2 {fill:none;fill-rule:evenodd;font-size:12px;overflow:visible;stroke-linecap:square;stroke-miterlimit:3}
	]]>
	</style>

	<g v:mID="0" v:index="1" v:groupContext="foregroundPage">
		<title>页-1</title>
		<v:pageProperties v:drawingScale="0.0393701" v:pageScale="0.0393701" v:drawingUnits="24" v:shadowOffsetX="9"
				v:shadowOffsetY="-9"/>
		<g id="group273-1" transform="translate(2.8777E-13,-7.94258)" v:mID="273" v:groupContext="group">
			<title>工作表.273</title>
			<g id="shape280-2" v:mID="280" v:groupContext="shape" transform="translate(55.9046,-0.0143224)">
				<title>工作表.280</title>
				<path d="M166.63 57.62 L200.78 100.18 C196.03 100.54 190.93 99.91 185.83 97.38 L166.4 73.17 C164.88 67.46 165.26
							 62.23 166.63 57.62 ZM218.9 94.02 L176.7 41.44 C174.71 43.43 172.43 46.13 170.39 49.42 L209.67 98.35
							 C213.42 97.08 216.58 95.44 218.9 94.02 ZM20.52 165.54 L63.05 218.54 C64.63 217.02 67.14 214.38 69.57
							 210.82 L29.1 160.4 C25.75 161.99 22.81 163.86 20.52 165.54 ZM76.16 190.3 L49.96 157.65 C45.52 156.56
							 41.22 156.75 37.21 157.61 L73.73 203.12 C75.29 199.29 76.29 194.97 76.16 190.3 ZM86.4 157.86 C61.21
							 126.49 88.47 102.01 94.18 97.42 C104.62 89.06 131.37 72.72 154.59 101.65 C159.4 107.63 162.16 113.46
							 163.47 119 C167.52 118.19 171.68 117.76 175.96 117.73 C175.71 116.46 175.44 115.19 175.07 113.9 C199.14
							 124.49 227.68 111.27 241.95 100.35 L234.35 90.41 C232.6 91.74 191.32 122.58 166.75 91.96 C142.1 61.26
							 180.61 26.77 182.26 25.32 L174.01 15.91 C160.56 27.69 141.98 52.93 147.03 78.74 C126.02 66.86 103.06
							 74.25 86.35 87.67 C74.13 97.47 59.62 117.39 64.41 140.93 C40.88 132.24 13.79 144.96 0 155.51 L7.6 165.46
							 C9.34 164.13 50.63 133.29 75.2 163.91 C99.84 194.62 61.34 229.1 59.68 230.55 L67.93 239.95 C80.67 228.81
							 98.05 205.6 95.59 181.26 C100.78 183.79 106.06 185.14 111.25 185.67 C111.21 184.78 111.11 183.89 111.11
							 182.98 C111.11 179.67 111.44 176.44 111.92 173.25 C103.48 172.23 94.54 168.02 86.4 157.86 ZM175.44 241
							 C143.5 241 117.52 215.01 117.52 183.08 C117.52 151.14 143.5 125.16 175.44 125.16 C207.39 125.16 233.37
							 151.14 233.37 183.08 C233.37 215.01 207.39 241 175.44 241 ZM218.83 183.08 C218.83 159.16 199.36 139.7
							 175.44 139.7 C151.52 139.7 132.06 159.16 132.06 183.08 C132.06 206.99 151.52 226.45 175.44 226.45 C199.36
							 226.45 218.82 206.99 218.83 183.08 ZM227.26 224.6 L214.46 237.4 L258.95 281.89 L271.76 269.09 L227.26
							 224.6 ZM166.81 208.8 L181.47 208.8 L181.47 194.87 L166.81 194.87 L166.81 208.8 ZM189.83 162.25 C188.37
							 160.81 186.47 159.63 184.12 158.73 C181.77 157.81 178.89 157.36 175.46 157.36 C171.99 157.36 169.04
							 157.89 166.63 158.93 C164.21 159.99 162.23 161.36 160.68 163.04 C159.12 164.73 157.98 166.65 157.23
							 168.78 C156.48 170.92 156.04 173.09 155.9 175.3 L170.61 175.3 C170.47 173.75 170.74 172.37 171.45 171.15
							 C172.15 169.92 173.36 169.32 175.04 169.32 C177.76 169.32 179.14 170.52 179.14 172.91 C179.14 173.71
							 178.9 174.4 178.43 174.95 C177.96 175.53 177.38 176.01 176.71 176.39 C176.02 176.79 175.31 177.17 174.56
							 177.48 C173.81 177.81 173.15 178.12 172.58 178.39 C171.22 179.15 170.19 180.09 169.49 181.21 C168.78
							 182.34 168.28 183.48 167.99 184.65 C167.72 185.82 167.58 186.97 167.58 188.09 C167.58 189.17 167.61
							 190.07 167.65 190.78 L180.68 190.78 C180.68 189.97 180.74 189.27 180.85 188.67 C180.97 188.07 181.17
							 187.52 181.44 187.06 C181.72 186.58 182.12 186.13 182.64 185.72 C183.14 185.3 183.8 184.87 184.61 184.45
							 C185.78 183.84 186.93 183.23 188.06 182.65 C189.18 182.07 190.2 181.33 191.12 180.43 C192.03 179.55
							 192.78 178.43 193.35 177.09 C193.92 175.75 194.19 174.01 194.19 171.83 C194.08 170.29 193.7 168.66 193.02
							 166.95 C192.36 165.24 191.29 163.68 189.83 162.25 ZM85.01 138.33 L104.43 162.54 C107.53 164.07 110.62
							 164.85 113.63 165.18 C114.11 163.49 114.67 161.85 115.28 160.22 L85.24 122.78 C83.86 127.38 83.48 132.62
							 85.01 138.33 ZM88.99 114.57 L118.97 151.92 C120.63 148.85 122.58 145.97 124.7 143.23 L95.3 106.59 C93.32
							 108.58 91.03 111.28 88.99 114.57 ZM136.81 131.15 L109.25 96.8 C105.89 98.39 102.95 100.26 100.66 101.95
							 L129.39 137.75 C131.69 135.36 134.18 133.17 136.81 131.15 ZM152.7 122.21 L130.1 94.06 C125.66 92.97
							 121.36 93.16 117.36 94.02 L143.53 126.64 C146.46 124.94 149.51 123.45 152.7 122.21 Z" class="st1"/>
			</g>
		</g>
	</g>
</svg>
